icons/ubuntu-breeze-light/places/22/certificate-server.svg

<svg version="1.1" viewBox="0 0 22 22" xmlns="http://www.w3.org/2000/svg">
    <defs>
        <style type="text/css" id="current-color-scheme">
            .ColorScheme-Text {
                color:#232629;
            }
        </style>
    </defs>
    <path class="ColorScheme-Text" d="m11 3c-2.216 0-4 1.784-4 4v4h-2v8h12v-8h-2v-4c0-2.216-1.784-4-4-4zm0 1c1.662 0 3 1.561 3 3.5v3.5h-6v-3.5c0-1.939 1.338-3.5 3-3.5z" fill="currentColor"/>
</svg>

<svg xmlns="http://www.w3.org/2000/svg" viewBox="0 0 22 22">
  <defs id="defs3051">
    <style type="text/css" id="current-color-scheme">
      .ColorScheme-Text {
        color:#232629
      }
      </style>
  </defs>
    <path
       style="fill:#686868"
       d="M 11 3 C 8.784 3 7 4.784 7 7 L 7 11 L 5 11 L 5 19 L 17 19 L 17 11 L 15 11 L 15 7 C 15 4.784 13.216 3 11 3 z M 11 4 C 12.662 4 14 5.561 14 7.5 L 14 11 L 8 11 L 8 7.5 C 8 5.561 9.338 4 11 4 z "
       class="ColorScheme-Text" />
</svg>
